!!!OTL: Caizhu poniang yan fanfan
!!!ARE: Asia, China,ÿHunan, Yuanling
!! I, 533
!!!SCT: C1465
!!!YEM: Copyright 1995, estate of Helmut Schaffrath.
**kern
*ICvox
*Ivox
!! Mixed meters:  2/4; 3/4
*M3/4
*k[]
*C:
{16ee
16dd
16ee
16dd
16cc
16ee
16dd
16cc
=1
16cc
8dd
16cc
4ee}
=2
{16.ee
32cc
16a
16cc
16dd
8dd
16ee
4a}
=3
*M2/4
{16.ee
32dd
16ee
16dd
16cc
16ee
16dd
16cc
=4
16cc
8a
16g
4a}
=5
*M3/4
{16.ee
32cc
16a
16cc
16dd
8dd
16ee
4a}
=6
*M2/4
{16.ee
32dd
16ee
16dd
16cc
16ee
16dd
16cc
=7
16cc
8a
16g
4a}
==
!!!AGN: Wuge, Huagu, Dengdiao. Ma caizhupo
!!!ONB: ESAC (Essen Associative Code) Database: HUANG
!!!AMT: irregular
!!!AIN: vox
!!!EED: Helmut Schaffrath
!!!EEV: 1.0
*-
